X: 19889
T: Jig For An Elderly Gent
R: jig
M: 6/8
K: Dmajor
AdA BAG|AdA F2A|DEF GAF|G3 E2A|
AdA BAG|AdA F2A|BdB cdc|d6|
AdA BAG|AdA F2A|ABB BAG|AFA GEA|
AdA BAG|AdA F2A|BdB cdc|d6|
dcA AFG|AFG E2A|dcA AAG|EFG A3|
dcA AAG|AFG E2A|BdB cdc|d6|
dcA AGA|gfd d2A|dcA AAG|EFG A3|
dcA AAG|AFG E2A|BdB cdc|d6|

